;FLAVOR:Marlin
;TIME:12612
;Filament used: 7.53066m
;Layer height: 0.2
;MINX:76.577
;MINY:44.321
;MINZ:0.2
;MAXX:143.423
;MAXY:175.678
;MAXZ:25
;Generated with Cura_SteamEngine 5.3.1
M82 ;absolute extrusion mode
; Ender 3 Custom Start G-code
G92 E0 ; Reset Extruder
G28 ; Home all axes
M104 S175 ; Start heating up the nozzle most of the way
M190 S60 ; Start heating the bed, wait until target temperature reached
M109 S200 ; Finish heating the nozzle
G1 Z2.0 F3000 ; Move Z Axis up little to prevent scratching of Heat Bed
G1 X0.1 Y20 Z0.3 F5000.0 ; Move to start position
G1 X0.1 Y200.0 Z0.3 F1500.0 E15 ; Draw the first line
G1 X0.4 Y200.0 Z0.3 F5000.0 ; Move to side a little
G1 X0.4 Y20 Z0.3 F1500.0 E30 ; Draw the second line
G92 E0 ; Reset Extruder
G1 Z2.0 F3000 ; Move Z Axis up little to prevent scratching of Heat Bed
G1 X5 Y20 Z0.3 F5000.0 ; Move over to prevent blob squish
G92 E0
G92 E0
G1 F1500 E-6.5
;LAYER_COUNT:125
;LAYER:0
M107
G0 F6000 X79.155 Y51.437 Z0.2
;TYPE:SKIRT
G1 F1500 E0
G1 F1200 X79.512 Y50.91 E0.02117
G1 X79.779 Y50.541 E0.03632
G1 X80.341 Y49.833 E0.06639
G1 X80.962 Y49.178 E0.09641
G1 X81.338 Y48.833 E0.11338
G1 X81.651 Y48.56 E0.12719
G1 X82.358 Y47.997 E0.15725
G1 X82.798 Y47.694 E0.17502
G1 X83.195 Y47.436 E0.19077
G1 X83.973 Y46.978 E0.2208
G1 X84.395 Y46.767 E0.23649
G1 X84.85 Y46.552 E0.25323
G1 X86.083 Y46.064 E0.29733
G1 X86.459 Y45.943 E0.31047
G1 X86.956 Y45.797 E0.3277
G1 X87.766 Y45.581 E0.35558
G1 X88.648 Y45.388 E0.38561
G1 X89.17 Y45.311 E0.40316
G1 X89.866 Y45.236 E0.42644
G1 X90.767 Y45.165 E0.4565
G1 X91.417 Y45.134 E0.47815
G1 X92.229 Y45.122 E0.50516
G1 X127.693 Y45.121 E1.68469
G1 X128.698 Y45.134 E1.71812
G1 X129.152 Y45.15 E1.73323
G1 X129.945 Y45.206 E1.75967
G1 X130.577 Y45.277 E1.78083
G1 X131.098 Y45.349 E1.79832
G1 X132.054 Y45.528 E1.83067
G1 X132.514 Y45.637 E1.84639
G1 X133.301 Y45.857 E1.87357
G1 X133.808 Y46.021 E1.89129
G1 X134.854 Y46.424 E1.92858
G1 X135.423 Y46.68 E1.94933
G1 X136.229 Y47.087 E1.97936
G1 X136.834 Y47.454 E2.0029
G1 X137.25 Y47.727 E2.01944
G1 X137.983 Y48.256 E2.04951
G1 X138.523 Y48.715 E2.07308
G1 X138.849 Y49.012 E2.08775
G1 X139.489 Y49.649 E2.11778
G1 X140.166 Y50.467 E2.1531
G1 X140.386 Y50.763 E2.16537
G1 X140.893 Y51.511 E2.19542
G1 X141.491 Y52.638 E2.23786
G1 X141.641 Y52.969 E2.24994
G1 X141.977 Y53.807 E2.27997
G1 X142.237 Y54.672 E2.31001
G1 X142.414 Y55.519 E2.33879
G1 X142.477 Y55.901 E2.35167
G1 X142.584 Y56.798 E2.38172
G1 X142.612 Y57.42 E2.40242
G1 X142.623 Y58.282 E2.4311
G1 X142.621 Y161.882 E5.87685
G1 X142.611 Y162.58 E5.90006
G1 X142.52 Y163.803 E5.94085
G1 X142.478 Y164.113 E5.95126
G1 X142.317 Y165.002 E5.98131
G1 X142.078 Y165.873 E6.01135
G1 X141.823 Y166.576 E6.03622
G1 X141.671 Y166.951 E6.04968
G1 X141.295 Y167.772 E6.07971
G1 X140.848 Y168.556 E6.10973
G1 X140.484 Y169.095 E6.13136
G1 X140.223 Y169.456 E6.14618
G1 X139.662 Y170.164 E6.17622
G1 X139.04 Y170.819 E6.20627
G1 X138.668 Y171.161 E6.22307
G1 X138.359 Y171.431 E6.23672
G1 X137.654 Y171.994 E6.26673
G1 X137.212 Y172.299 E6.28459
G1 X136.811 Y172.56 E6.3005
G1 X136.033 Y173.018 E6.33053
G1 X135.596 Y173.237 E6.34679
G1 X135.142 Y173.451 E6.36348
G1 X133.933 Y173.93 E6.40674
G1 X133.556 Y174.052 E6.41991
G1 X133.044 Y174.203 E6.43767
G1 X132.234 Y174.419 E6.46555
G1 X131.352 Y174.612 E6.49558
G1 X130.83 Y174.689 E6.51313
G1 X130.134 Y174.764 E6.53641
G1 X129.233 Y174.835 E6.56647
G1 X128.583 Y174.866 E6.58812
G1 X127.772 Y174.878 E6.61509
G1 X92.163 Y174.877 E7.79945
G1 X91.301 Y174.865 E7.82813
G1 X90.494 Y174.828 E7.855
G1 X90.017 Y174.79 E7.87091
G1 X89.4 Y174.72 E7.89156
G1 X88.901 Y174.651 E7.90832
G1 X87.946 Y174.472 E7.94064
G1 X87.486 Y174.363 E7.95636
G1 X86.699 Y174.143 E7.98354
G1 X86.192 Y173.979 E8.00126
G1 X85.145 Y173.575 E8.03859
G1 X84.574 Y173.318 E8.05941
G1 X83.767 Y172.912 E8.08946
G1 X83.159 Y172.542 E8.11313
G1 X82.745 Y172.27 E8.12961
G1 X82.013 Y171.741 E8.15965
G1 X81.477 Y171.285 E8.18305
G1 X81.151 Y170.988 E8.19772
G1 X80.511 Y170.351 E8.22775
G1 X79.834 Y169.533 E8.26307
G1 X79.614 Y169.237 E8.27534
G1 X79.107 Y168.489 E8.30539
G1 X78.505 Y167.352 E8.34818
G1 X78.355 Y167.02 E8.3603
G1 X78.02 Y166.181 E8.39035
G1 X77.76 Y165.316 E8.42039
G1 X77.587 Y164.484 E8.44865
G1 X77.524 Y164.103 E8.4615
G1 X77.416 Y163.206 E8.49155
G1 X77.388 Y162.575 E8.51255
G1 X77.377 Y161.69 E8.54199
G1 X77.378 Y58.119 E11.98678
G1 X77.388 Y57.419 E12.01006
G1 X77.482 Y56.176 E12.05152
G1 X77.526 Y55.856 E12.06227
G1 X77.689 Y54.967 E12.09233
G1 X77.929 Y54.097 E12.12234
G1 X78.185 Y53.397 E12.14713
G1 X78.33 Y53.041 E12.15992
G1 X78.707 Y52.221 E12.18994
G1 X79.155 Y51.437 E12.21997
G0 F6000 X78.824 Y51.213
G1 F1200 X79.188 Y50.676 E12.24155
G1 X79.466 Y50.292 E12.25731
G1 X80.028 Y49.584 E12.28738
G1 X80.692 Y48.883 E12.31949
G1 X81.075 Y48.532 E12.33677
G1 X81.402 Y48.247 E12.3512
G1 X82.109 Y47.684 E12.38126
G1 X82.58 Y47.359 E12.40029
G1 X82.992 Y47.091 E12.41664
G1 X83.794 Y46.62 E12.44758
G1 X84.224 Y46.405 E12.46356
G1 X84.679 Y46.19 E12.4803
G1 X85.96 Y45.683 E12.52612
G1 X86.346 Y45.559 E12.53961
G1 X86.853 Y45.411 E12.55718
G1 X87.68 Y45.19 E12.58565
G1 X88.562 Y44.997 E12.61568
G1 X89.127 Y44.913 E12.63468
G1 X89.835 Y44.837 E12.65836
G1 X90.748 Y44.765 E12.68882
G1 X91.411 Y44.734 E12.7109
G1 X92.229 Y44.722 E12.7381
G1 X127.698 Y44.721 E13.91781
G1 X128.712 Y44.734 E13.95154
G1 X129.18 Y44.751 E13.96711
G1 X129.99 Y44.809 E13.99412
G1 X130.632 Y44.881 E14.01561
G1 X131.172 Y44.956 E14.03374
G1 X132.146 Y45.139 E14.0667
G1 X132.622 Y45.252 E14.08298
G1 X133.424 Y45.476 E14.11067
G1 X133.931 Y45.64 E14.1284
G1 X135.018 Y46.059 E14.16714
G1 X135.603 Y46.323 E14.18849
G1 X136.436 Y46.745 E14.21955
G1 X137.053 Y47.12 E14.24356
G1 X137.484 Y47.403 E14.26071
G1 X138.242 Y47.951 E14.29182
G1 X138.792 Y48.419 E14.31584
G1 X139.131 Y48.728 E14.3311
G1 X139.771 Y49.365 E14.36113
G1 X140.487 Y50.228 E14.39843
G1 X140.717 Y50.539 E14.41129
G1 X141.224 Y51.287 E14.44135
G1 X141.855 Y52.473 E14.48603
G1 X142.012 Y52.82 E14.4987
G1 X142.36 Y53.692 E14.52992
G1 X142.629 Y54.59 E14.5611
G1 X142.809 Y55.454 E14.59045
G1 X142.874 Y55.854 E14.60393
G1 X142.984 Y56.78 E14.63495
G1 X143.012 Y57.415 E14.65609
G1 X143.023 Y58.282 E14.68493
G1 X143.021 Y161.888 E18.13088
G1 X143.01 Y162.61 E18.15489
G1 X142.919 Y163.833 E18.19568
G1 X142.872 Y164.184 E18.20746
G1 X142.703 Y165.108 E18.2387
G1 X142.464 Y165.979 E18.26875
G1 X142.194 Y166.726 E18.29516
G1 X142.035 Y167.118 E18.30923
G1 X141.659 Y167.939 E18.33927
G1 X141.179 Y168.78 E18.37147
G1 X140.808 Y169.329 E18.39351
G1 X140.537 Y169.704 E18.4089
G1 X139.976 Y170.412 E18.43895
G1 X139.311 Y171.113 E18.47108
G1 X138.931 Y171.462 E18.48824
G1 X138.609 Y171.744 E18.50248
G1 X137.904 Y172.307 E18.53249
G1 X137.43 Y172.634 E18.55164
G1 X137.014 Y172.905 E18.56815
G1 X136.212 Y173.376 E18.59909
G1 X135.767 Y173.599 E18.61564
G1 X135.313 Y173.813 E18.63234
G1 X134.056 Y174.311 E18.67731
G1 X133.669 Y174.436 E18.69083
G1 X133.147 Y174.589 E18.70893
G1 X132.32 Y174.81 E18.7374
G1 X131.438 Y175.003 E18.76743
G1 X130.873 Y175.087 E18.78642
G1 X130.165 Y175.163 E18.81011
G1 X129.252 Y175.235 E18.84057
G1 X128.602 Y175.266 E18.86221
G1 X127.772 Y175.278 E18.88982
G1 X92.157 Y175.277 E20.07438
G1 X91.283 Y175.265 E20.10345
G1 X90.462 Y175.227 E20.13079
G1 X89.972 Y175.187 E20.14714
G1 X89.345 Y175.116 E20.16813
G1 X88.827 Y175.044 E20.18552
G1 X87.854 Y174.861 E20.21845
G1 X87.378 Y174.748 E20.23472
G1 X86.576 Y174.524 E20.26242
G1 X86.069 Y174.36 E20.28014
G1 X84.981 Y173.94 E20.31893
G1 X84.394 Y173.675 E20.34035
G1 X83.559 Y173.254 E20.37146
G1 X82.939 Y172.876 E20.39561
G1 X82.511 Y172.594 E20.41265
G1 X81.754 Y172.046 E20.44374
G1 X81.208 Y171.581 E20.46759
G1 X80.869 Y171.272 E20.48285
G1 X80.229 Y170.635 E20.51288
G1 X79.513 Y169.772 E20.55018
G1 X79.283 Y169.461 E20.56304
G1 X78.753 Y168.676 E20.59454
G1 X78.14 Y167.517 E20.63815
G1 X77.99 Y167.185 E20.65027
G1 X77.637 Y166.296 E20.68208
G1 X77.368 Y165.397 E20.71329
G1 X77.192 Y164.549 E20.7421
G1 X77.127 Y164.151 E20.75551
G1 X77.016 Y163.224 E20.78657
G1 X76.988 Y162.58 E20.80801
G1 X76.977 Y161.69 E20.83761
G1 X76.978 Y58.113 E24.28259
G1 X76.989 Y57.389 E24.30668
G1 X77.083 Y56.146 E24.34814
G1 X77.133 Y55.784 E24.36029
G1 X77.303 Y54.861 E24.39151
G1 X77.553 Y53.96 E24.42261
G1 X77.815 Y53.246 E24.4479
G1 X77.967 Y52.874 E24.46127
G1 X78.36 Y52.023 E24.49245
G1 X78.824 Y51.213 E24.52349
G0 F6000 X78.477 Y51.014
G1 F1200 X78.864 Y50.441 E24.54649
G1 X79.153 Y50.043 E24.56285
G1 X79.715 Y49.335 E24.59292
G1 X80.422 Y48.588 E24.62712
G1 X80.812 Y48.23 E24.64473
G1 X81.153 Y47.934 E24.65975
G1 X81.86 Y47.371 E24.68981
G1 X82.362 Y47.024 E24.71011
G1 X82.789 Y46.746 E24.72706
G1 X83.615 Y46.262 E24.7589
G1 X84.053 Y46.043 E24.77518
G1 X84.508 Y45.828 E24.79192
G1 X85.838 Y45.302 E24.83949
G1 X86.234 Y45.175 E24.85332
G1 X86.75 Y45.025 E24.8712
G1 X87.594 Y44.799 E24.90026
G1 X88.503 Y44.601 E24.9312
G1 X89.084 Y44.515 E24.95073
G1 X89.804 Y44.438 E24.97482
G1 X90.729 Y44.365 E25.00568
G1 X91.405 Y44.334 E25.02819
G1 X92.229 Y44.322 E25.0556
G1 X127.703 Y44.321 E26.23547
G1 X128.727 Y44.334 E26.26953
G1 X129.209 Y44.352 E26.28557
G1 X130.035 Y44.411 E26.31311
G1 X130.687 Y44.485 E26.33494
G1 X131.246 Y44.563 E26.35371
G1 X132.238 Y44.75 E26.38729
G1 X132.73 Y44.867 E26.40411
G1 X133.547 Y45.095 E26.43232
G1 X134.054 Y45.259 E26.45004
G1 X135.183 Y45.694 E26.49028
G1 X135.784 Y45.966 E26.51222
G1 X136.644 Y46.403 E26.54431
G1 X137.273 Y46.786 E26.5688
G1 X137.718 Y47.079 E26.58652
G1 X138.501 Y47.646 E26.61868
G1 X139.061 Y48.123 E26.64314
G1 X139.413 Y48.444 E26.65899
G1 X140.053 Y49.081 E26.68902
G1 X140.809 Y49.99 E26.72834
G1 X141.039 Y50.301 E26.74121
G1 X141.577 Y51.099 E26.77322
G1 X142.208 Y52.285 E26.8179
G1 X142.384 Y52.672 E26.83204
G1 X142.732 Y53.544 E26.86327
G1 X143.021 Y54.508 E26.89674
G1 X143.204 Y55.39 E26.9267
G1 X143.271 Y55.807 E26.94075
G1 X143.384 Y56.762 E26.97273
G1 X143.412 Y57.41 E26.99431
G1 X143.423 Y58.282 E27.02331
G1 X143.421 Y161.894 E30.46946
G1 X143.409 Y162.64 E30.49428
G1 X143.318 Y163.863 E30.53507
G1 X143.265 Y164.256 E30.54826
G1 X143.089 Y165.214 E30.58065
G1 X142.85 Y166.085 E30.61069
G1 X142.565 Y166.876 E30.63866
G1 X142.399 Y167.285 E30.65334
G1 X142.023 Y168.106 E30.68337
G1 X141.51 Y169.004 E30.71777
G1 X141.132 Y169.563 E30.74021
G1 X140.851 Y169.952 E30.75617
G1 X140.29 Y170.66 E30.78622
G1 X139.582 Y171.408 E30.82048
G1 X139.195 Y171.763 E30.83794
G1 X138.859 Y172.057 E30.85279
G1 X138.154 Y172.62 E30.8828
G1 X137.648 Y172.969 E30.90324
G1 X137.217 Y173.25 E30.92036
G1 X136.391 Y173.734 E30.9522
G1 X135.938 Y173.961 E30.96905
G1 X135.484 Y174.175 E30.98574
G1 X134.179 Y174.692 E31.03243
G1 X133.782 Y174.82 E31.0463
G1 X133.25 Y174.975 E31.06473
G1 X132.406 Y175.201 E31.0938
G1 X131.497 Y175.399 E31.12474
G1 X130.916 Y175.485 E31.14427
G1 X130.196 Y175.562 E31.16836
G1 X129.271 Y175.635 E31.19922
G1 X128.608 Y175.666 E31.22129
G1 X127.778 Y175.678 E31.2489
G1 X92.152 Y175.677 E32.43383
G1 X91.265 Y175.665 E32.46333
G1 X90.429 Y175.626 E32.49117
G1 X89.927 Y175.584 E32.50792
G1 X89.29 Y175.512 E32.52924
G1 X88.753 Y175.437 E32.54728
G1 X87.762 Y175.25 E32.58082
G1 X87.27 Y175.133 E32.59764
G1 X86.453 Y174.905 E32.62585
G1 X85.946 Y174.741 E32.64358
G1 X84.816 Y174.305 E32.68386
G1 X84.229 Y174.04 E32.70528
G1 X83.351 Y173.596 E32.73801
G1 X82.719 Y173.21 E32.76264
G1 X82.276 Y172.918 E32.78028
G1 X81.495 Y172.351 E32.81238
G1 X80.939 Y171.877 E32.83668
G1 X80.587 Y171.556 E32.85253
G1 X79.947 Y170.919 E32.88256
G1 X79.191 Y170.01 E32.92189
G1 X78.951 Y169.685 E32.93532
G1 X78.421 Y168.9 E32.96683
G1 X77.775 Y167.682 E33.01268
G1 X77.618 Y167.333 E33.02541
G1 X77.265 Y166.444 E33.05722
G1 X76.976 Y165.478 E33.09076
G1 X76.797 Y164.613 E33.12014
G1 X76.73 Y164.199 E33.13409
G1 X76.616 Y163.241 E33.16618
G1 X76.588 Y162.585 E33.18802
G1 X76.577 Y161.69 E33.21779
G1 X76.578 Y58.107 E36.66297
G1 X76.59 Y57.359 E36.68785
G1 X76.684 Y56.116 E36.72931
G1 X76.74 Y55.712 E36.74288
G1 X76.918 Y54.754 E36.77529
G1 X77.177 Y53.822 E36.80746
G1 X77.439 Y53.108 E36.83276
G1 X77.604 Y52.706 E36.84721
G1 X78.013 Y51.824 E36.87954
G1 X78.477 Y51.014 E36.91059
G1 F1500 E30.41059
;MESH:Colour Picker Top (2).stl
G0 F6000 X96.417 Y60.095
G0 X111.386 Y73.064
;TYPE:WALL-INNER
G1 F1500 E36.91059
G1 F1200 X111.075 Y73.203 E36.92192
G1 X97.123 Y73.204 E37.38597
G1 X96.811 Y73.063 E37.39736
G1 X96.659 Y72.869 E37.40555
G1 X96.598 Y72.683 E37.41206
G1 X96.598 Y60.116 E37.83004
G1 X96.722 Y59.832 E37.84035
G1 X96.842 Y59.714 E37.84595
G1 X97.125 Y59.598 E37.85612
G1 X111 Y59.598 E38.3176
G1 X111.195 Y59.63 E38.32418
G1 X111.36 Y59.718 E38.3304
G1 X111.48 Y59.837 E38.33602
G1 X111.6 Y60.119 E38.34621
G1 X111.598 Y72.661 E38.76336
G1 X111.544 Y72.858 E38.77015
G1 X111.386 Y73.064 E38.77879
G1 F1500 E32.27879
G0 F6000 X111.386 Y73.103
G0 X98.62 Y73.003
G0 X98.62 Y80.897
G0 X98.62 Y152.902
G1 F1500 E38.77879
G1 F1200 X98.331 Y152.778 E38.78925
G1 X98.185 Y152.615 E38.79653
G1 X98.103 Y152.386 E38.80462
G1 X98.098 Y81.62 E41.1583
G1 X98.147 Y81.457 E41.16396
G1 X98.331 Y81.221 E41.17392
G1 X98.626 Y81.097 E41.18456
G1 X123.361 Y81.099 E42.00725
G1 X123.558 Y81.153 E42.01404
G1 X123.698 Y81.244 E42.0196
G1 X123.821 Y81.392 E42.026
G1 X123.904 Y81.615 E42.03391
G1 X123.904 Y152.378 E44.3875
G1 X123.759 Y152.693 E44.39903
G1 X123.621 Y152.812 E44.40509
G1 X123.389 Y152.897 E44.41331
G1 X98.62 Y152.902 E45.23713
G1 F1500 E38.73713
G0 F6000 X123.382 Y153.083
G0 X123.38 Y163.898
G0 X128.383 Y164.079
G1 F1500 E45.23713
G1 F1200 X129.486 Y163.983 E45.27396
G1 X129.775 Y163.892 E45.28403
G1 X130.256 Y163.778 E45.30048
G1 X130.633 Y163.649 E45.31373
G1 X130.951 Y163.5 E45.32541
G1 X131.285 Y163.282 E45.33867
G1 X131.539 Y163.051 E45.35009
G1 X131.699 Y162.836 E45.35901
G1 X131.79 Y162.624 E45.36668
G1 X131.822 Y162.404 E45.37407
G1 X131.822 Y57.595 E48.86004
G1 X131.791 Y57.374 E48.86746
G1 X131.702 Y57.167 E48.87495
G1 X131.539 Y56.949 E48.88401
G1 X131.284 Y56.718 E48.89545
G1 X130.952 Y56.501 E48.90864
G1 X130.548 Y56.31 E48.92351
G1 X130.009 Y56.133 E48.94237
G1 X129.59 Y56.035 E48.95669
G1 X128.858 Y55.944 E48.98122
G1 X128.379 Y55.922 E48.99717
G1 X91.617 Y55.921 E50.21988
G1 X90.514 Y56.017 E50.2567
G1 X90.225 Y56.108 E50.26678
G1 X89.744 Y56.222 E50.28322
G1 X89.367 Y56.352 E50.29648
G1 X89.049 Y56.5 E50.30815
G1 X88.715 Y56.718 E50.32142
G1 X88.461 Y56.949 E50.33284
G1 X88.298 Y57.167 E50.34189
G1 X88.209 Y57.374 E50.34938
G1 X88.177 Y57.595 E50.35681
G1 X88.177 Y162.405 E53.84281
G1 X88.209 Y162.626 E53.85023
G1 X88.298 Y162.833 E53.85773
G1 X88.461 Y163.051 E53.86678
G1 X88.716 Y163.282 E53.87822
G1 X89.048 Y163.499 E53.89142
G1 X89.452 Y163.69 E53.90628
G1 X89.991 Y163.867 E53.92515
G1 X90.41 Y163.965 E53.93946
G1 X91.142 Y164.056 E53.96399
G1 X91.621 Y164.078 E53.97994
G1 X128.383 Y164.079 E55.20265
G0 F6000 X128.4 Y164.479
;TYPE:WALL-OUTER
G1 F1200 X129.564 Y164.378 E55.24151
G1 X129.893 Y164.274 E55.25299
G1 X130.367 Y164.163 E55.26918
G1 X130.783 Y164.02 E55.28381
G1 X131.146 Y163.85 E55.29714
G1 X131.53 Y163.6 E55.31238
G1 X131.837 Y163.321 E55.32618
G1 X132.048 Y163.038 E55.33792
G1 X132.179 Y162.733 E55.34896
G1 X132.222 Y162.432 E55.35907
G1 X132.222 Y57.567 E58.8469
G1 X132.18 Y57.265 E58.85704
G1 X132.051 Y56.965 E58.8679
G1 X131.837 Y56.679 E58.87978
G1 X131.53 Y56.4 E58.89358
G1 X131.148 Y56.151 E58.90875
G1 X130.696 Y55.938 E58.92536
G1 X130.117 Y55.747 E58.94564
G1 X129.66 Y55.641 E58.96125
