;FLAVOR:Marlin
;TIME:8662
;Filament used: 5.07488m
;Layer height: 0.2
;MINX:75.494
;MINY:43.403
;MINZ:0.2
;MAXX:144.506
;MAXY:176.597
;MAXZ:10
;Generated with Cura_SteamEngine 5.3.1
M82 ;absolute extrusion mode
; Ender 3 Custom Start G-code
G92 E0 ; Reset Extruder
G28 ; Home all axes
M104 S175 ; Start heating up the nozzle most of the way
M190 S60 ; Start heating the bed, wait until target temperature reached
M109 S200 ; Finish heating the nozzle
G1 Z2.0 F3000 ; Move Z Axis up little to prevent scratching of Heat Bed
G1 X0.1 Y20 Z0.3 F5000.0 ; Move to start position
G1 X0.1 Y200.0 Z0.3 F1500.0 E15 ; Draw the first line
G1 X0.4 Y200.0 Z0.3 F5000.0 ; Move to side a little
G1 X0.4 Y20 Z0.3 F1500.0 E30 ; Draw the second line
G92 E0 ; Reset Extruder
G1 Z2.0 F3000 ; Move Z Axis up little to prevent scratching of Heat Bed
G1 X5 Y20 Z0.3 F5000.0 ; Move over to prevent blob squish
G92 E0
G92 E0
G1 F1500 E-6.5
;LAYER_COUNT:50
;LAYER:0
M107
G0 F6000 X78.223 Y50.889 Z0.2
;TYPE:SKIRT
G1 F1500 E0
G1 F1200 X78.558 Y50.398 E0.01977
G1 X78.936 Y49.877 E0.04118
G1 X79.498 Y49.17 E0.07122
G1 X80.319 Y48.331 E0.11026
G1 X80.751 Y47.937 E0.12971
G1 X81.444 Y47.358 E0.15974
G1 X81.924 Y47.014 E0.17938
G1 X82.522 Y46.611 E0.20337
G1 X83.292 Y46.14 E0.23339
G1 X83.766 Y45.895 E0.25114
G1 X84.682 Y45.453 E0.28496
G1 X85.346 Y45.15 E0.30924
G1 X86.183 Y44.812 E0.33926
G1 X87.047 Y44.55 E0.36929
G1 X87.931 Y44.364 E0.39934
G1 X88.828 Y44.258 E0.42938
G1 X89.528 Y44.23 E0.45268
G1 X91.526 Y44.208 E0.51914
G1 X92.412 Y44.206 E0.54861
G1 X92.981 Y44.221 E0.56754
G1 X94.153 Y44.285 E0.60658
G1 X96.814 Y44.393 E0.69516
G1 X99.231 Y44.425 E0.77555
G1 X120.805 Y44.425 E1.49311
G1 X123.409 Y44.388 E1.57972
G1 X126.324 Y44.259 E1.67677
G1 X126.955 Y44.221 E1.6978
G1 X127.659 Y44.203 E1.72122
G1 X130.492 Y44.228 E1.81545
G1 X131.394 Y44.276 E1.84549
G1 X132.288 Y44.404 E1.87553
G1 X133.167 Y44.61 E1.90556
G1 X134.025 Y44.893 E1.93561
G1 X134.597 Y45.131 E1.95621
G1 X135.386 Y45.487 E1.985
G1 X136.239 Y45.898 E2.0165
G1 X137.142 Y46.396 E2.0508
G1 X137.747 Y46.781 E2.07465
G1 X137.99 Y46.946 E2.08442
G1 X138.953 Y47.688 E2.12485
G1 X139.482 Y48.148 E2.14817
G1 X140.137 Y48.77 E2.17821
G1 X140.97 Y49.754 E2.22109
G1 X141.346 Y50.259 E2.24203
G1 X141.853 Y51.006 E2.27206
G1 X142.292 Y51.796 E2.30212
G1 X142.499 Y52.237 E2.31832
G1 X142.729 Y52.759 E2.33729
G1 X143.056 Y53.601 E2.36734
G1 X143.308 Y54.468 E2.39737
G1 X143.45 Y55.157 E2.42076
G1 X143.544 Y55.708 E2.43936
G1 X143.656 Y56.604 E2.46939
G1 X143.687 Y57.236 E2.49043
G1 X143.706 Y58.352 E2.52756
G1 X143.705 Y161.913 E5.97201
G1 X143.695 Y162.643 E5.99629
G1 X143.599 Y163.904 E6.03836
G1 X143.524 Y164.445 E6.05652
G1 X143.361 Y165.333 E6.08655
G1 X143.119 Y166.203 E6.11658
G1 X142.843 Y166.952 E6.14313
G1 X142.607 Y167.521 E6.16362
G1 X142.224 Y168.339 E6.19366
G1 X141.771 Y169.12 E6.22369
G1 X141.443 Y169.6 E6.24303
G1 X141.066 Y170.12 E6.26439
G1 X140.504 Y170.827 E6.29443
G1 X139.681 Y171.669 E6.33359
G1 X139.249 Y172.063 E6.35304
G1 X138.556 Y172.642 E6.38307
G1 X138.06 Y172.997 E6.40336
G1 X137.455 Y173.403 E6.42759
G1 X136.683 Y173.872 E6.45764
G1 X136.249 Y174.097 E6.4739
G1 X135.342 Y174.537 E6.50743
G1 X134.656 Y174.85 E6.53251
G1 X133.819 Y175.188 E6.56253
G1 X132.955 Y175.451 E6.59257
G1 X132.071 Y175.636 E6.62261
G1 X131.174 Y175.742 E6.65265
G1 X130.474 Y175.77 E6.67595
G1 X128.474 Y175.792 E6.74247
G1 X127.588 Y175.794 E6.77194
G1 X127.019 Y175.779 E6.79087
G1 X125.847 Y175.715 E6.82991
G1 X123.186 Y175.607 E6.91849
G1 X120.769 Y175.575 E6.99889
G1 X99.195 Y175.575 E7.71644
G1 X96.591 Y175.612 E7.80306
G1 X93.676 Y175.741 E7.90011
G1 X93.045 Y175.779 E7.92113
G1 X92.341 Y175.797 E7.94456
G1 X89.507 Y175.772 E8.03882
G1 X88.605 Y175.724 E8.06886
G1 X87.711 Y175.596 E8.0989
G1 X86.832 Y175.39 E8.12893
G1 X85.974 Y175.107 E8.15898
G1 X85.398 Y174.867 E8.17973
G1 X84.342 Y174.386 E8.21833
G1 X83.759 Y174.102 E8.23989
G1 X82.833 Y173.59 E8.27509
G1 X82.589 Y173.438 E8.28465
G1 X82.011 Y173.055 E8.30771
G1 X81.052 Y172.316 E8.34798
G1 X80.518 Y171.852 E8.37151
G1 X79.863 Y171.231 E8.40153
G1 X79.007 Y170.219 E8.44561
G1 X78.632 Y169.712 E8.46659
G1 X78.128 Y168.962 E8.49664
G1 X77.692 Y168.172 E8.52665
G1 X77.497 Y167.755 E8.54196
G1 X77.269 Y167.237 E8.56079
G1 X76.942 Y166.395 E8.59083
G1 X76.691 Y165.528 E8.62085
G1 X76.55 Y164.843 E8.64411
G1 X76.456 Y164.292 E8.6627
G1 X76.344 Y163.396 E8.69274
G1 X76.313 Y162.758 E8.71398
G1 X76.294 Y161.621 E8.7518
G1 X76.295 Y58.033 E12.19716
G1 X76.306 Y57.326 E12.22067
G1 X76.403 Y56.072 E12.26251
G1 X76.477 Y55.543 E12.28027
G1 X76.642 Y54.655 E12.31031
G1 X76.884 Y53.785 E12.34035
G1 X77.154 Y53.057 E12.36617
G1 X77.389 Y52.489 E12.38662
G1 X77.771 Y51.67 E12.41667
G1 X78.223 Y50.889 E12.44669
G0 F6000 X77.877 Y50.689
G1 F1200 X78.234 Y50.163 E12.46783
G1 X78.623 Y49.628 E12.48983
G1 X79.212 Y48.89 E12.52124
G1 X80.049 Y48.035 E12.56103
G1 X80.481 Y47.641 E12.58048
G1 X81.211 Y47.033 E12.61208
G1 X81.7 Y46.682 E12.6321
G1 X82.313 Y46.27 E12.65666
G1 X83.083 Y45.799 E12.68668
G1 X83.592 Y45.535 E12.70576
G1 X84.516 Y45.089 E12.73988
G1 X85.196 Y44.779 E12.76474
G1 X86.067 Y44.429 E12.79596
G1 X86.931 Y44.167 E12.82599
G1 X87.884 Y43.967 E12.85837
G1 X88.812 Y43.858 E12.88945
G1 X89.524 Y43.83 E12.91315
G1 X91.525 Y43.808 E12.97971
G1 X92.423 Y43.806 E13.00958
G1 X93.003 Y43.822 E13.02888
G1 X94.169 Y43.885 E13.06771
G1 X96.83 Y43.993 E13.15629
G1 X99.236 Y44.025 E13.23632
G1 X120.799 Y44.025 E13.95351
G1 X123.391 Y43.988 E14.03973
G1 X126.306 Y43.86 E14.13678
G1 X126.945 Y43.821 E14.15807
G1 X127.663 Y43.803 E14.18196
G1 X130.513 Y43.829 E14.27675
G1 X131.451 Y43.88 E14.308
G1 X132.345 Y44.008 E14.33803
G1 X133.292 Y44.23 E14.37039
G1 X134.15 Y44.513 E14.40043
G1 X134.762 Y44.766 E14.42246
G1 X135.56 Y45.127 E14.45159
G1 X136.432 Y45.548 E14.4838
G1 X137.357 Y46.059 E14.51895
G1 X137.972 Y46.45 E14.54319
G1 X138.234 Y46.629 E14.55374
G1 X139.215 Y47.386 E14.59495
G1 X139.757 Y47.858 E14.61886
G1 X140.412 Y48.48 E14.6489
G1 X141.291 Y49.515 E14.69406
G1 X141.677 Y50.034 E14.71558
G1 X142.203 Y50.812 E14.74681
G1 X142.642 Y51.602 E14.77687
G1 X142.865 Y52.076 E14.79429
G1 X143.102 Y52.614 E14.81385
G1 X143.429 Y53.456 E14.84389
G1 X143.7 Y54.387 E14.87614
G1 X143.844 Y55.09 E14.90001
G1 X143.941 Y55.658 E14.91917
G1 X144.056 Y56.584 E14.95021
G1 X144.087 Y57.229 E14.97169
G1 X144.106 Y58.352 E15.00904
G1 X144.105 Y161.918 E18.45366
G1 X144.094 Y162.673 E18.47878
G1 X143.998 Y163.934 E18.52084
G1 X143.917 Y164.517 E18.54042
G1 X143.746 Y165.44 E18.57164
G1 X143.494 Y166.341 E18.60275
G1 X143.212 Y167.105 E18.62984
G1 X142.969 Y167.691 E18.65094
G1 X142.57 Y168.54 E18.68214
G1 X142.117 Y169.321 E18.71217
G1 X141.767 Y169.835 E18.73285
G1 X141.379 Y170.369 E18.75481
G1 X140.79 Y171.107 E18.78621
G1 X139.951 Y171.965 E18.82613
G1 X139.519 Y172.359 E18.84557
G1 X138.789 Y172.967 E18.87717
G1 X138.283 Y173.329 E18.89786
G1 X137.663 Y173.745 E18.9227
G1 X136.891 Y174.214 E18.95274
G1 X136.424 Y174.457 E18.97025
G1 X135.508 Y174.901 E19.00411
G1 X134.806 Y175.221 E19.02977
G1 X133.935 Y175.571 E19.06099
G1 X133.037 Y175.843 E19.0922
G1 X132.153 Y176.028 E19.12224
G1 X131.19 Y176.142 E19.15449
G1 X130.478 Y176.17 E19.17819
G1 X128.475 Y176.192 E19.24481
G1 X127.577 Y176.194 E19.27468
G1 X126.997 Y176.178 E19.29398
G1 X125.831 Y176.115 E19.33282
G1 X123.17 Y176.007 E19.42139
G1 X120.764 Y175.975 E19.50142
G1 X99.201 Y175.975 E20.21861
G1 X96.609 Y176.012 E20.30483
G1 X93.694 Y176.14 E20.40188
G1 X93.055 Y176.179 E20.42317
G1 X92.337 Y176.197 E20.44706
G1 X89.486 Y176.171 E20.54189
G1 X88.548 Y176.12 E20.57313
G1 X87.654 Y175.992 E20.60317
G1 X86.707 Y175.77 E20.63552
G1 X85.849 Y175.487 E20.66557
G1 X85.232 Y175.231 E20.68779
G1 X84.167 Y174.746 E20.72671
G1 X83.565 Y174.452 E20.74899
G1 X82.622 Y173.93 E20.78484
G1 X82.368 Y173.771 E20.79481
G1 X81.767 Y173.372 E20.8188
G1 X80.79 Y172.618 E20.85985
G1 X80.243 Y172.142 E20.88397
G1 X79.588 Y171.521 E20.91399
G1 X78.685 Y170.457 E20.9604
G1 X78.3 Y169.935 E20.98198
G1 X77.796 Y169.185 E21.01203
G1 X77.342 Y168.365 E21.0432
G1 X77.131 Y167.916 E21.05971
G1 X76.896 Y167.382 E21.07911
G1 X76.569 Y166.54 E21.10915
G1 X76.299 Y165.609 E21.14139
G1 X76.156 Y164.91 E21.16512
G1 X76.059 Y164.342 E21.18429
G1 X75.944 Y163.415 E21.21536
G1 X75.913 Y162.765 E21.237
G1 X75.894 Y161.621 E21.27506
G1 X75.895 Y58.027 E24.72061
G1 X75.907 Y57.295 E24.74496
G1 X76.004 Y56.041 E24.78679
G1 X76.084 Y55.47 E24.80597
G1 X76.249 Y54.582 E24.83601
G1 X76.509 Y53.646 E24.86832
G1 X76.784 Y52.904 E24.89464
G1 X77.026 Y52.32 E24.91566
G1 X77.408 Y51.501 E24.94572
G1 X77.877 Y50.689 E24.97691
G0 F6000 X77.546 Y50.464
G1 F1200 X77.91 Y49.928 E24.99846
G1 X78.31 Y49.378 E25.02108
G1 X78.899 Y48.64 E25.05248
G1 X79.779 Y47.739 E25.09437
G1 X80.211 Y47.345 E25.11382
G1 X80.978 Y46.708 E25.14698
G1 X81.477 Y46.35 E25.16741
G1 X82.104 Y45.929 E25.19252
G1 X82.874 Y45.458 E25.22255
G1 X83.418 Y45.175 E25.24294
G1 X84.35 Y44.725 E25.27736
G1 X85.047 Y44.408 E25.30283
G1 X85.951 Y44.046 E25.33522
G1 X86.815 Y43.784 E25.36525
G1 X87.837 Y43.57 E25.39998
G1 X88.796 Y43.458 E25.43209
G1 X89.52 Y43.43 E25.45619
G1 X91.524 Y43.408 E25.52285
G1 X92.434 Y43.406 E25.55311
G1 X93.025 Y43.423 E25.57278
G1 X94.185 Y43.485 E25.61142
G1 X96.846 Y43.593 E25.69999
G1 X99.241 Y43.625 E25.77966
G1 X120.793 Y43.625 E26.49648
G1 X123.373 Y43.588 E26.5823
G1 X126.288 Y43.461 E26.67935
G1 X126.935 Y43.421 E26.70091
G1 X127.667 Y43.403 E26.72526
G1 X130.535 Y43.43 E26.82065
G1 X131.508 Y43.484 E26.85307
G1 X132.402 Y43.612 E26.8831
G1 X133.417 Y43.85 E26.91778
G1 X134.303 Y44.143 E26.94882
G1 X134.927 Y44.402 E26.97129
G1 X135.734 Y44.767 E27.00075
G1 X136.625 Y45.198 E27.03367
G1 X137.572 Y45.721 E27.06965
G1 X138.198 Y46.12 E27.09434
G1 X138.478 Y46.312 E27.10563
G1 X139.478 Y47.084 E27.14765
G1 X140.02 Y47.556 E27.17155
G1 X140.717 Y48.221 E27.20359
G1 X141.612 Y49.276 E27.24961
G1 X142.008 Y49.81 E27.27172
G1 X142.553 Y50.618 E27.30414
G1 X142.992 Y51.408 E27.3342
G1 X143.231 Y51.915 E27.35284
G1 X143.475 Y52.469 E27.37297
G1 X143.802 Y53.311 E27.40302
G1 X144.092 Y54.307 E27.43752
G1 X144.238 Y55.023 E27.46182
G1 X144.338 Y55.609 E27.4816
G1 X144.456 Y56.565 E27.51363
G1 X144.487 Y57.222 E27.53551
G1 X144.506 Y58.352 E27.5731
G1 X144.505 Y161.924 E31.01792
G1 X144.493 Y162.703 E31.04383
G1 X144.397 Y163.964 E31.08589
G1 X144.31 Y164.59 E31.10691
G1 X144.131 Y165.548 E31.13933
G1 X143.869 Y166.48 E31.17153
G1 X143.581 Y167.258 E31.19912
G1 X143.331 Y167.861 E31.22083
G1 X142.916 Y168.741 E31.25319
G1 X142.448 Y169.546 E31.28416
G1 X142.091 Y170.07 E31.30525
G1 X141.692 Y170.619 E31.32783
G1 X141.103 Y171.357 E31.35923
G1 X140.221 Y172.261 E31.40124
G1 X139.789 Y172.655 E31.42068
G1 X139.022 Y173.292 E31.45385
G1 X138.506 Y173.661 E31.47494
G1 X137.871 Y174.087 E31.50038
G1 X137.076 Y174.569 E31.5313
G1 X136.598 Y174.817 E31.54921
G1 X135.674 Y175.265 E31.58336
G1 X134.955 Y175.592 E31.60963
G1 X134.051 Y175.954 E31.64202
G1 X133.119 Y176.235 E31.6744
G1 X132.235 Y176.42 E31.70444
G1 X131.206 Y176.542 E31.7389
G1 X130.482 Y176.57 E31.763
G1 X128.476 Y176.592 E31.82973
G1 X127.566 Y176.594 E31.85999
G1 X126.975 Y176.577 E31.87966
G1 X125.815 Y176.515 E31.91829
G1 X123.154 Y176.407 E32.00687
G1 X120.759 Y176.375 E32.08654
G1 X99.207 Y176.375 E32.80336
G1 X96.627 Y176.412 E32.88918
G1 X93.712 Y176.539 E32.98622
G1 X93.065 Y176.579 E33.00779
G1 X92.333 Y176.597 E33.03214
G1 X89.464 Y176.57 E33.12757
G1 X88.491 Y176.516 E33.15998
G1 X87.597 Y176.388 E33.19002
G1 X86.582 Y176.15 E33.22469
G1 X85.724 Y175.867 E33.25474
G1 X85.066 Y175.595 E33.27842
G1 X83.991 Y175.105 E33.31772
G1 X83.371 Y174.802 E33.34067
G1 X82.41 Y174.269 E33.37722
G1 X82.147 Y174.104 E33.38754
G1 X81.523 Y173.689 E33.41247
G1 X80.527 Y172.92 E33.45432
G1 X79.98 Y172.444 E33.47844
G1 X79.283 Y171.78 E33.51046
G1 X78.38 Y170.716 E33.55687
G1 X77.968 Y170.158 E33.57994
G1 X77.446 Y169.379 E33.61113
G1 X76.992 Y168.559 E33.64231
G1 X76.765 Y168.077 E33.66003
G1 X76.523 Y167.527 E33.68001
G1 X76.196 Y166.685 E33.71005
G1 X75.907 Y165.689 E33.74455
G1 X75.762 Y164.977 E33.76871
G1 X75.662 Y164.391 E33.78849
G1 X75.544 Y163.434 E33.82056
G1 X75.513 Y162.772 E33.8426
G1 X75.494 Y161.621 E33.88089
G1 X75.495 Y58.02 E37.32667
G1 X75.508 Y57.264 E37.35182
G1 X75.605 Y56.01 E37.39365
G1 X75.691 Y55.397 E37.41424
G1 X75.856 Y54.509 E37.44428
G1 X76.134 Y53.507 E37.47887
G1 X76.414 Y52.751 E37.50568
G1 X76.663 Y52.151 E37.52729
G1 X77.045 Y51.332 E37.55734
G1 X77.546 Y50.464 E37.59068
G1 F1500 E31.09068
G0 F6000 X86.782 Y56.297
G0 X86.994 Y56.453
G1 F1500 E37.59068
G1 F1200 X87.343 Y55.982 E37.61017
G1 X87.791 Y55.58 E37.63019
G1 X88.308 Y55.241 E37.65076
G1 X89.51 Y54.673 E37.69497
G1 X89.572 Y54.728 E37.69773
G1 X89.642 Y54.745 E37.70013
G1 X89.93 Y54.76 E37.70972
G1 X89.95 Y54.76 E37.71038
G1 X90.248 Y54.745 E37.72031
G1 X90.263 Y54.743 E37.72081
G1 X90.915 Y54.662 E37.74266
G1 X92.268 Y54.602 E37.78771
G1 X92.287 Y54.645 E37.78927
G1 X92.339 Y54.675 E37.79127
G1 X91.562 Y54.675 E37.81711
G1 X90.914 Y54.704 E37.83869
G1 X90.897 Y54.706 E37.83926
G1 X90.234 Y54.794 E37.8615
G1 X90.215 Y54.797 E37.86214
G1 X89.581 Y54.943 E37.88378
G1 X89.561 Y54.949 E37.88447
G1 X88.971 Y55.151 E37.90522
G1 X88.95 Y55.159 E37.90596
G1 X88.415 Y55.412 E37.92565
G1 X88.392 Y55.425 E37.92653
G1 X87.924 Y55.73 E37.94511
G1 X87.899 Y55.75 E37.94617
G1 X87.509 Y56.103 E37.96367
G1 X87.482 Y56.132 E37.96498
G1 X87.185 Y56.533 E37.98158
G1 X87.162 Y56.573 E37.98312
G1 X86.973 Y57.014 E37.99907
G1 X86.959 Y57.064 E38.0008
G1 X86.896 Y57.5 E38.01545
G1 X86.894 Y57.529 E38.01642
G1 X86.894 Y162.483 E41.5072
G1 X86.896 Y162.513 E41.5082
G1 X86.962 Y162.952 E41.52297
G1 X86.977 Y163.002 E41.52471
G1 X87.164 Y163.429 E41.54021
G1 X87.186 Y163.468 E41.5417
G1 X87.482 Y163.868 E41.55825
G1 X87.509 Y163.897 E41.55957
G1 X87.899 Y164.25 E41.57706
G1 X87.924 Y164.27 E41.57813
G1 X88.392 Y164.575 E41.59671
G1 X88.416 Y164.588 E41.59762
G1 X88.968 Y164.848 E41.61791
G1 X88.989 Y164.856 E41.61866
G1 X89.563 Y165.051 E41.63882
G1 X89.582 Y165.057 E41.63948
G1 X90.215 Y165.203 E41.66109
G1 X90.234 Y165.206 E41.66173
G1 X90.916 Y165.296 E41.68461
G1 X90.933 Y165.298 E41.68518
G1 X91.582 Y165.326 E41.70678
G1 X92.354 Y165.326 E41.73246
G1 X92.283 Y165.369 E41.73522
G1 X92.27 Y165.4 E41.73634
G1 X90.92 Y165.338 E41.78129
G1 X90.305 Y165.258 E41.80192
G1 X90.289 Y165.256 E41.80245
G1 X89.959 Y165.239 E41.81344
G1 X89.938 Y165.239 E41.81414
G1 X89.642 Y165.256 E41.824
G1 X89.525 Y165.302 E41.82818
G1 X89.506 Y165.325 E41.82918
G1 X88.308 Y164.759 E41.87324
G1 X87.791 Y164.42 E41.89381
G1 X87.344 Y164.017 E41.91382
G1 X86.998 Y163.55 E41.93316
G1 X86.772 Y163.037 E41.9518
G1 X86.694 Y162.512 E41.96945
G1 X86.694 Y57.499 E45.4622
G1 X86.768 Y56.983 E45.47954
G1 X86.994 Y56.453 E45.4987
G1 F1500 E38.9987
G0 F6000 X86.782 Y56.297
G0 X87.149 Y55.803
G0 X87.626 Y55.37
G0 X88.176 Y55.012
G0 X89.444 Y54.498
G0 X90.865 Y54.242
G0 X127.645 Y54.21
G0 X127.646 Y54.674
G1 F1500 E45.4987
G1 F1200 X127.717 Y54.631 E45.50146
G1 X127.73 Y54.6 E45.50258
G1 X129.08 Y54.662 E45.54753
G1 X129.695 Y54.742 E45.56816
G1 X129.711 Y54.744 E45.56869
G1 X130.041 Y54.761 E45.57968
G1 X130.062 Y54.761 E45.58038
G1 X130.358 Y54.744 E45.59024
G1 X130.475 Y54.698 E45.59442
G1 X130.494 Y54.675 E45.59542
G1 X131.692 Y55.241 E45.63949
G1 X132.209 Y55.58 E45.66005
G1 X132.656 Y55.983 E45.68007
G1 X133.002 Y56.45 E45.6994
