;FLAVOR:Marlin
;TIME:4314
;Filament used: 1.81455m
;Layer height: 0.2
;MINX:85.873
;MINY:85.874
;MINZ:0.2
;MAXX:134.127
;MAXY:134.126
;MAXZ:27
;Generated with Cura_SteamEngine 5.3.1
M82 ;absolute extrusion mode
; Ender 3 Custom Start G-code
G92 E0 ; Reset Extruder
G28 ; Home all axes
M104 S175 ; Start heating up the nozzle most of the way
M190 S60 ; Start heating the bed, wait until target temperature reached
M109 S200 ; Finish heating the nozzle
G1 Z2.0 F3000 ; Move Z Axis up little to prevent scratching of Heat Bed
G1 X0.1 Y20 Z0.3 F5000.0 ; Move to start position
G1 X0.1 Y200.0 Z0.3 F1500.0 E15 ; Draw the first line
G1 X0.4 Y200.0 Z0.3 F5000.0 ; Move to side a little
G1 X0.4 Y20 Z0.3 F1500.0 E30 ; Draw the second line
G92 E0 ; Reset Extruder
G1 Z2.0 F3000 ; Move Z Axis up little to prevent scratching of Heat Bed
G1 X5 Y20 Z0.3 F5000.0 ; Move over to prevent blob squish
G92 E0
G92 E0
G1 F1500 E-6.5
;LAYER_COUNT:135
;LAYER:0
M107
G0 F6000 X93.534 Y93.474 Z0.2
;TYPE:SKIRT
G1 F1500 E0
G1 F1200 X93.961 Y93.061 E0.01976
G1 X94.528 Y92.544 E0.04528
G1 X95.122 Y92.03 E0.07141
G1 X95.576 Y91.665 E0.09078
G1 X96.127 Y91.247 E0.11378
G1 X96.783 Y90.776 E0.14064
G1 X97.258 Y90.46 E0.15962
G1 X98.154 Y89.904 E0.19469
G1 X98.537 Y89.681 E0.20943
G1 X99.045 Y89.404 E0.22868
G1 X99.682 Y89.08 E0.25245
G1 X100.405 Y88.736 E0.27908
G1 X100.936 Y88.505 E0.29834
G1 X101.625 Y88.229 E0.32302
G1 X102.309 Y87.974 E0.3473
G1 X102.884 Y87.784 E0.36744
G1 X103.586 Y87.574 E0.39182
G1 X104.325 Y87.373 E0.41729
G1 X104.891 Y87.24 E0.43663
G1 X105.618 Y87.091 E0.46131
G1 X106.413 Y86.949 E0.48817
G1 X107.012 Y86.864 E0.50829
G1 X107.66 Y86.792 E0.52998
G1 X108.406 Y86.727 E0.55488
G1 X109.019 Y86.695 E0.5753
G1 X110.136 Y86.674 E0.61246
G1 X110.519 Y86.677 E0.6252
G1 X111.153 Y86.702 E0.6463
G1 X112.037 Y86.764 E0.67577
G1 X112.76 Y86.833 E0.69993
G1 X113.35 Y86.912 E0.71973
G1 X114.289 Y87.069 E0.75139
G1 X114.765 Y87.161 E0.76752
G1 X115.363 Y87.296 E0.78791
G1 X116.131 Y87.493 E0.81428
G1 X116.866 Y87.702 E0.83969
G1 X117.422 Y87.882 E0.85913
G1 X118.349 Y88.216 E0.8919
G1 X118.739 Y88.368 E0.90583
G1 X119.324 Y88.618 E0.92699
G1 X120.146 Y88.999 E0.95712
G1 X120.789 Y89.316 E0.98096
G1 X121.333 Y89.61 E1.00153
G1 X121.973 Y89.982 E1.02615
G1 X122.607 Y90.372 E1.05091
G1 X123.116 Y90.71 E1.07123
G1 X123.716 Y91.135 E1.09569
G1 X124.322 Y91.586 E1.12081
G1 X124.797 Y91.965 E1.14102
G1 X125.319 Y92.409 E1.16381
G1 X125.878 Y92.908 E1.18874
G1 X126.338 Y93.349 E1.20993
G1 X126.868 Y93.89 E1.23512
G1 X127.376 Y94.434 E1.25988
G1 X127.762 Y94.878 E1.27945
G1 X128.214 Y95.429 E1.30315
G1 X128.682 Y96.028 E1.32843
G1 X129.031 Y96.51 E1.34822
G1 X129.588 Y97.334 E1.3813
G1 X129.855 Y97.752 E1.3978
G1 X130.167 Y98.275 E1.41806
G1 X130.667 Y99.181 E1.45247
G1 X130.877 Y99.588 E1.46771
G1 X131.133 Y100.122 E1.4874
G1 X131.441 Y100.815 E1.51263
G1 X131.719 Y101.483 E1.53669
G1 X131.938 Y102.067 E1.55744
G1 X132.254 Y103.007 E1.59042
G1 X132.386 Y103.434 E1.60529
G1 X132.548 Y104.018 E1.62544
G1 X132.726 Y104.744 E1.6503
G1 X132.891 Y105.498 E1.67598
G1 X132.997 Y106.085 E1.69582
G1 X133.145 Y107.09 E1.7296
G1 X133.201 Y107.554 E1.74515
G1 X133.255 Y108.15 E1.76505
G1 X133.297 Y108.833 E1.78781
G1 X133.326 Y109.619 E1.81397
G1 X133.327 Y110.222 E1.83403
G1 X133.307 Y110.939 E1.85788
G1 X133.266 Y111.714 E1.8837
G1 X133.214 Y112.305 E1.90343
G1 X133.13 Y113.018 E1.92731
G1 X133.02 Y113.784 E1.95305
G1 X132.916 Y114.366 E1.97271
G1 X132.77 Y115.062 E1.99636
G1 X132.588 Y115.832 E2.02268
G1 X132.436 Y116.388 E2.04185
G1 X132.224 Y117.085 E2.06608
G1 X131.971 Y117.845 E2.09272
G1 X131.766 Y118.395 E2.11225
G1 X131.521 Y118.999 E2.13392
G1 X131.197 Y119.743 E2.16092
G1 X130.948 Y120.265 E2.18015
G1 X130.602 Y120.94 E2.20538
G1 X130.235 Y121.61 E2.23079
G1 X129.944 Y122.1 E2.24974
G1 X129.549 Y122.724 E2.27431
G1 X129.118 Y123.369 E2.30011
G1 X128.772 Y123.848 E2.31976
G1 X128.349 Y124.4 E2.34289
G1 X127.818 Y125.057 E2.37099
G1 X127.441 Y125.491 E2.39011
G1 X126.791 Y126.193 E2.42193
G1 X126.466 Y126.526 E2.4374
G1 X126.039 Y126.939 E2.45716
G1 X125.472 Y127.456 E2.48268
G1 X124.878 Y127.97 E2.50881
G1 X124.424 Y128.335 E2.52819
G1 X123.62 Y128.939 E2.56163
G1 X123.234 Y129.213 E2.57738
G1 X122.751 Y129.535 E2.59668
G1 X121.859 Y130.089 E2.63161
G1 X121.464 Y130.319 E2.64681
G1 X120.955 Y130.596 E2.66608
G1 X120.318 Y130.92 E2.68985
G1 X119.595 Y131.264 E2.71648
G1 X119.064 Y131.495 E2.73574
G1 X118.375 Y131.771 E2.76043
G1 X117.691 Y132.026 E2.78471
G1 X117.116 Y132.216 E2.80485
G1 X116.414 Y132.426 E2.82922
G1 X115.675 Y132.627 E2.85469
G1 X115.109 Y132.76 E2.87403
G1 X114.382 Y132.909 E2.89872
G1 X113.587 Y133.051 E2.92558
G1 X112.988 Y133.136 E2.9457
G1 X112.34 Y133.208 E2.96738
G1 X111.594 Y133.273 E2.99229
G1 X110.981 Y133.305 E3.01271
G1 X109.864 Y133.326 E3.04986
G1 X109.482 Y133.323 E3.06257
G1 X108.849 Y133.298 E3.08364
G1 X107.964 Y133.236 E3.11315
G1 X107.24 Y133.167 E3.13734
G1 X106.65 Y133.088 E3.15713
G1 X105.711 Y132.931 E3.1888
G1 X105.235 Y132.839 E3.20492
G1 X104.637 Y132.704 E3.22531
G1 X103.869 Y132.507 E3.25169
G1 X103.134 Y132.298 E3.2771
G1 X102.578 Y132.118 E3.29654
G1 X101.651 Y131.784 E3.32931
G1 X101.261 Y131.632 E3.34323
G1 X100.676 Y131.382 E3.36439
G1 X99.854 Y131.001 E3.39453
G1 X99.207 Y130.682 E3.41852
G1 X98.66 Y130.386 E3.4392
G1 X98.024 Y130.016 E3.46368
G1 X97.393 Y129.628 E3.48831
G1 X96.884 Y129.29 E3.50864
G1 X96.042 Y128.689 E3.54304
G1 X95.673 Y128.411 E3.55841
G1 X95.204 Y128.035 E3.5784
G1 X94.683 Y127.592 E3.60115
G1 X94.12 Y127.09 E3.62624
G1 X93.661 Y126.65 E3.64739
G1 X93.132 Y126.11 E3.67253
G1 X92.624 Y125.566 E3.69728
G1 X92.236 Y125.12 E3.71695
G1 X91.785 Y124.57 E3.7406
G1 X91.318 Y123.972 E3.76584
G1 X90.965 Y123.484 E3.78587
G1 X90.564 Y122.895 E3.80957
G1 X90.143 Y122.244 E3.83536
G1 X89.833 Y121.725 E3.85546
G1 X89.49 Y121.11 E3.87888
G1 X89.122 Y120.409 E3.90522
G1 X88.866 Y119.874 E3.92494
G1 X88.444 Y118.916 E3.95976
G1 X88.281 Y118.519 E3.97403
G1 X88.059 Y117.927 E3.99506
G1 X87.833 Y117.262 E4.01842
G1 X87.612 Y116.558 E4.04297
G1 X87.453 Y115.981 E4.06287
G1 X87.2 Y114.93 E4.09883
G1 X87.109 Y114.5 E4.11345
G1 X87.003 Y113.913 E4.13328
G1 X86.894 Y113.192 E4.15754
G1 X86.798 Y112.428 E4.18315
G1 X86.745 Y111.85 E4.20245
G1 X86.703 Y111.169 E4.22515
G1 X86.674 Y110.381 E4.25137
G1 X86.673 Y109.778 E4.27143
G1 X86.693 Y109.061 E4.29529
G1 X86.734 Y108.286 E4.3211
G1 X86.786 Y107.695 E4.34083
G1 X86.87 Y106.982 E4.36471
G1 X86.98 Y106.216 E4.39045
G1 X87.084 Y105.634 E4.41011
G1 X87.23 Y104.938 E4.43377
G1 X87.412 Y104.168 E4.46008
G1 X87.564 Y103.612 E4.47925
G1 X87.776 Y102.915 E4.50348
G1 X88.029 Y102.155 E4.53013
G1 X88.234 Y101.605 E4.54965
G1 X88.479 Y101.001 E4.57133
G1 X88.803 Y100.257 E4.59832
G1 X89.052 Y99.735 E4.61755
G1 X89.398 Y99.06 E4.64278
G1 X89.765 Y98.39 E4.66819
G1 X90.056 Y97.9 E4.68714
G1 X90.451 Y97.276 E4.71171
G1 X90.882 Y96.631 E4.73751
G1 X91.228 Y96.152 E4.75716
G1 X91.651 Y95.6 E4.78029
G1 X92.182 Y94.943 E4.80839
G1 X92.559 Y94.509 E4.82751
G1 X93.209 Y93.807 E4.85933
G1 X93.534 Y93.474 E4.87481
G0 F6000 X93.256 Y93.186
G1 F1200 X93.691 Y92.765 E4.89494
G1 X94.266 Y92.242 E4.92079
G1 X94.871 Y91.718 E4.94741
G1 X95.334 Y91.346 E4.96717
G1 X95.894 Y90.922 E4.99053
G1 X96.561 Y90.443 E5.01784
G1 X97.047 Y90.12 E5.03725
G1 X97.953 Y89.558 E5.07271
G1 X98.346 Y89.33 E5.08782
G1 X98.864 Y89.047 E5.10746
G1 X99.51 Y88.719 E5.13155
G1 X100.245 Y88.369 E5.15863
G1 X100.787 Y88.134 E5.17828
G1 X101.485 Y87.854 E5.20329
G1 X102.184 Y87.594 E5.2281
G1 X102.769 Y87.401 E5.24858
G1 X103.481 Y87.188 E5.2733
G1 X104.233 Y86.984 E5.29922
G1 X104.811 Y86.848 E5.31897
G1 X105.548 Y86.697 E5.34399
G1 X106.357 Y86.553 E5.37132
G1 X106.968 Y86.466 E5.39185
G1 X107.625 Y86.394 E5.41383
G1 X108.385 Y86.328 E5.4392
G1 X109.011 Y86.295 E5.46005
G1 X110.139 Y86.274 E5.49758
G1 X110.535 Y86.277 E5.51075
G1 X111.181 Y86.303 E5.53225
G1 X112.075 Y86.366 E5.56206
G1 X112.813 Y86.437 E5.58672
G1 X113.416 Y86.517 E5.60695
G1 X114.365 Y86.676 E5.63895
G1 X114.853 Y86.771 E5.65549
G1 X115.462 Y86.909 E5.67626
G1 X116.24 Y87.108 E5.70297
G1 X116.989 Y87.321 E5.72887
G1 X117.558 Y87.506 E5.74877
G1 X118.494 Y87.843 E5.78186
G1 X118.896 Y88 E5.79621
G1 X119.492 Y88.255 E5.81777
G1 X120.323 Y88.64 E5.84823
G1 X120.979 Y88.964 E5.87257
G1 X121.534 Y89.264 E5.89355
G1 X122.183 Y89.641 E5.91851
G1 X122.817 Y90.031 E5.94327
G1 X123.347 Y90.384 E5.96445
G1 X123.955 Y90.814 E5.98922
G1 X124.571 Y91.273 E6.01477
G1 X125.056 Y91.66 E6.03541
G1 X125.585 Y92.111 E6.05853
G1 X126.155 Y92.619 E6.08392
G1 X126.624 Y93.069 E6.10554
G1 X127.16 Y93.617 E6.13104
G1 X127.678 Y94.172 E6.15629
G1 X128.071 Y94.624 E6.17621
G1 X128.529 Y95.183 E6.20025
G1 X129.006 Y95.793 E6.226
G1 X129.362 Y96.286 E6.24623
G1 X129.925 Y97.119 E6.27967
G1 X130.199 Y97.547 E6.29657
G1 X130.517 Y98.082 E6.31727
G1 X131.022 Y98.998 E6.35206
G1 X131.238 Y99.415 E6.36768
G1 X131.499 Y99.96 E6.38778
G1 X131.81 Y100.661 E6.41328
G1 X132.094 Y101.343 E6.43785
G1 X132.317 Y101.94 E6.45905
G1 X132.636 Y102.889 E6.49235
G1 X132.771 Y103.327 E6.50759
G1 X132.936 Y103.923 E6.52816
G1 X133.117 Y104.658 E6.55334
G1 X133.285 Y105.427 E6.57952
G1 X133.393 Y106.027 E6.5998
G1 X133.542 Y107.042 E6.63392
G1 X133.599 Y107.518 E6.64986
G1 X133.654 Y108.125 E6.67013
G1 X133.697 Y108.818 E6.69323
G1 X133.726 Y109.618 E6.71985
G1 X133.727 Y110.233 E6.74031
G1 X133.706 Y110.96 E6.7645
G1 X133.664 Y111.749 E6.79078
G1 X133.611 Y112.352 E6.81091
G1 X133.526 Y113.075 E6.83512
G1 X133.414 Y113.854 E6.8613
G1 X133.307 Y114.448 E6.88137
G1 X133.159 Y115.154 E6.90537
G1 X132.974 Y115.937 E6.93213
G1 X132.819 Y116.504 E6.95168
G1 X132.604 Y117.211 E6.97625
G1 X132.346 Y117.985 E7.00339
G1 X132.137 Y118.545 E7.02327
G1 X131.888 Y119.159 E7.04531
G1 X131.558 Y119.915 E7.07274
G1 X131.304 Y120.447 E7.09235
G1 X130.953 Y121.132 E7.11795
G1 X130.579 Y121.814 E7.14382
G1 X130.282 Y122.314 E7.16317
G1 X129.882 Y122.946 E7.18804
G1 X129.442 Y123.603 E7.21434
G1 X129.089 Y124.091 E7.23437
G1 X128.66 Y124.651 E7.25784
G1 X128.12 Y125.319 E7.28641
G1 X127.735 Y125.763 E7.30595
G1 X127.085 Y126.465 E7.33777
G1 X126.744 Y126.814 E7.354
G1 X126.309 Y127.235 E7.37414
G1 X125.734 Y127.758 E7.39999
G1 X125.129 Y128.282 E7.42661
G1 X124.664 Y128.655 E7.44644
G1 X123.852 Y129.265 E7.48021
G1 X123.456 Y129.546 E7.49636
G1 X122.962 Y129.875 E7.51611
G1 X122.06 Y130.435 E7.55142
G1 X121.655 Y130.67 E7.56699
G1 X121.136 Y130.953 E7.58665
G1 X120.49 Y131.281 E7.61075
G1 X119.755 Y131.631 E7.63783
G1 X119.213 Y131.866 E7.65747
G1 X118.515 Y132.146 E7.68249
G1 X117.816 Y132.406 E7.70729
G1 X117.231 Y132.599 E7.72778
G1 X116.519 Y132.812 E7.7525
G1 X115.767 Y133.016 E7.77842
G1 X115.189 Y133.152 E7.79817
G1 X114.452 Y133.303 E7.82319
G1 X113.643 Y133.447 E7.85052
G1 X113.032 Y133.534 E7.87104
G1 X112.375 Y133.606 E7.89303
G1 X111.615 Y133.672 E7.9184
G1 X110.989 Y133.705 E7.93925
G1 X109.861 Y133.726 E7.97677
G1 X109.466 Y133.723 E7.98991
G1 X108.821 Y133.697 E8.01138
G1 X107.926 Y133.634 E8.04122
G1 X107.187 Y133.563 E8.06592
G1 X106.584 Y133.483 E8.08615
G1 X105.635 Y133.324 E8.11815
G1 X105.147 Y133.229 E8.13469
G1 X104.538 Y133.091 E8.15546
G1 X103.76 Y132.892 E8.18217
G1 X103.011 Y132.679 E8.20807
G1 X102.442 Y132.494 E8.22797
G1 X101.506 Y132.157 E8.26105
G1 X101.104 Y132 E8.27541
G1 X100.508 Y131.745 E8.29697
G1 X99.677 Y131.36 E8.32743
G1 X99.017 Y131.034 E8.35191
G1 X98.459 Y130.732 E8.37302
G1 X97.814 Y130.357 E8.39783
G1 X97.183 Y129.969 E8.42247
G1 X96.652 Y129.616 E8.44368
G1 X95.801 Y129.008 E8.47846
G1 X95.423 Y128.723 E8.49421
G1 X94.945 Y128.34 E8.51458
G1 X94.417 Y127.891 E8.53763
G1 X93.843 Y127.379 E8.56322
G1 X93.375 Y126.93 E8.58479
G1 X92.84 Y126.383 E8.61024
G1 X92.322 Y125.829 E8.63546
G1 X91.927 Y125.374 E8.6555
G1 X91.47 Y124.816 E8.67949
G1 X90.994 Y124.206 E8.70523
G1 X90.634 Y123.709 E8.72564
G1 X90.228 Y123.112 E8.74965
G1 X89.8 Y122.449 E8.7759
G1 X89.484 Y121.92 E8.79639
G1 X89.136 Y121.296 E8.82016
G1 X88.761 Y120.582 E8.84698
G1 X88.5 Y120.035 E8.86714
G1 X88.074 Y119.068 E8.90228
G1 X87.906 Y118.659 E8.91699
G1 X87.68 Y118.056 E8.93841
G1 X87.451 Y117.382 E8.96208
G1 X87.226 Y116.664 E8.98711
G1 X87.064 Y116.075 E9.00743
G1 X86.809 Y115.013 E9.04375
G1 X86.715 Y114.571 E9.05878
G1 X86.607 Y113.973 E9.07899
G1 X86.497 Y113.242 E9.10358
G1 X86.4 Y112.465 E9.12962
G1 X86.346 Y111.875 E9.14933
G1 X86.303 Y111.184 E9.17236
G1 X86.274 Y110.382 E9.19905
G1 X86.273 Y109.767 E9.2195
G1 X86.294 Y109.04 E9.24369
G1 X86.336 Y108.251 E9.26997
G1 X86.389 Y107.648 E9.29011
G1 X86.474 Y106.925 E9.31432
G1 X86.586 Y106.146 E9.3405
G1 X86.693 Y105.552 E9.36057
G1 X86.841 Y104.846 E9.38456
G1 X87.026 Y104.063 E9.41132
G1 X87.181 Y103.496 E9.43087
G1 X87.396 Y102.789 E9.45545
G1 X87.654 Y102.015 E9.48259
G1 X87.863 Y101.455 E9.50247
G1 X88.112 Y100.841 E9.5245
G1 X88.442 Y100.085 E9.55194
G1 X88.696 Y99.553 E9.57155
G1 X89.047 Y98.868 E9.59715
G1 X89.421 Y98.186 E9.62302
G1 X89.718 Y97.686 E9.64236
G1 X90.118 Y97.054 E9.66724
G1 X90.558 Y96.397 E9.69354
G1 X90.911 Y95.909 E9.71357
G1 X91.34 Y95.349 E9.73703
G1 X91.88 Y94.681 E9.7656
G1 X92.265 Y94.237 E9.78515
G1 X92.915 Y93.535 E9.81697
G1 X93.256 Y93.186 E9.8332
G0 F6000 X92.978 Y92.899
G1 F1200 X93.422 Y92.469 E9.85376
G1 X94.004 Y91.94 E9.87991
G1 X94.62 Y91.406 E9.90703
G1 X95.093 Y91.027 E9.92719
G1 X95.661 Y90.597 E9.95088
G1 X96.34 Y90.11 E9.97867
G1 X96.836 Y89.78 E9.99849
G1 X97.752 Y89.212 E10.03434
G1 X98.154 Y88.979 E10.04979
G1 X98.683 Y88.69 E10.06984
G1 X99.338 Y88.358 E10.09426
G1 X100.086 Y88.002 E10.12182
G1 X100.638 Y87.763 E10.14182
G1 X101.346 Y87.479 E10.1672
G1 X102.059 Y87.214 E10.1925
G1 X102.654 Y87.018 E10.21333
G1 X103.376 Y86.802 E10.2384
G1 X104.141 Y86.595 E10.26476
G1 X104.731 Y86.456 E10.28492
G1 X105.478 Y86.303 E10.31028
G1 X106.301 Y86.157 E10.33808
G1 X106.924 Y86.068 E10.35901
G1 X107.59 Y85.995 E10.38129
G1 X108.35 Y85.929 E10.40667
G1 X109.004 Y85.895 E10.42845
G1 X110.142 Y85.874 E10.4663
G1 X110.551 Y85.877 E10.47991
G1 X111.209 Y85.904 E10.50181
G1 X112.113 Y85.968 E10.53195
G1 X112.866 Y86.04 E10.55711
G1 X113.482 Y86.122 E10.57778
G1 X114.441 Y86.283 E10.61012
G1 X114.941 Y86.381 E10.62707
G1 X115.561 Y86.521 E10.64821
G1 X116.349 Y86.723 E10.67527
G1 X117.113 Y86.941 E10.70169
G1 X117.694 Y87.13 E10.72201
G1 X118.64 Y87.47 E10.75545
G1 X119.053 Y87.632 E10.7702
G1 X119.66 Y87.892 E10.79217
G1 X120.5 Y88.281 E10.82296
G1 X121.169 Y88.612 E10.84778
G1 X121.735 Y88.918 E10.86918
G1 X122.393 Y89.3 E10.89449
G1 X123.039 Y89.698 E10.91972
G1 X123.578 Y90.057 E10.94126
G1 X124.194 Y90.493 E10.96636
G1 X124.82 Y90.96 E10.99234
G1 X125.316 Y91.356 E11.01345
G1 X125.851 Y91.812 E11.03683
G1 X126.432 Y92.33 E11.06272
G1 X126.91 Y92.789 E11.08476
G1 X127.452 Y93.344 E11.11056
G1 X127.98 Y93.91 E11.13631
G1 X128.38 Y94.37 E11.15658
G1 X128.844 Y94.937 E11.18095
G1 X129.33 Y95.559 E11.20721
G1 X129.693 Y96.062 E11.22784
G1 X130.262 Y96.903 E11.26161
G1 X130.543 Y97.343 E11.27897
G1 X130.867 Y97.889 E11.30009
G1 X131.377 Y98.814 E11.33522
G1 X131.599 Y99.242 E11.35126
G1 X131.865 Y99.798 E11.37176
G1 X132.179 Y100.507 E11.39755
G1 X132.469 Y101.203 E11.42263
G1 X132.696 Y101.813 E11.44428
G1 X133.018 Y102.771 E11.47789
G1 X133.156 Y103.22 E11.49351
G1 X133.324 Y103.827 E11.51446
G1 X133.508 Y104.573 E11.54002
G1 X133.679 Y105.356 E11.56667
G1 X133.789 Y105.969 E11.58739
G1 X133.939 Y106.994 E11.62184
G1 X133.997 Y107.482 E11.63819
