;FLAVOR:Marlin
;TIME:8681
;Filament used: 5.69198m
;Layer height: 0.2
;MINX:75.493
;MINY:41.1
;MINZ:0.2
;MAXX:144.507
;MAXY:176.595
;MAXZ:12
;Generated with Cura_SteamEngine 5.3.1
M82 ;absolute extrusion mode
; Ender 3 Custom Start G-code
G92 E0 ; Reset Extruder
G28 ; Home all axes
M104 S175 ; Start heating up the nozzle most of the way
M190 S60 ; Start heating the bed, wait until target temperature reached
M109 S200 ; Finish heating the nozzle
G1 Z2.0 F3000 ; Move Z Axis up little to prevent scratching of Heat Bed
G1 X0.1 Y20 Z0.3 F5000.0 ; Move to start position
G1 X0.1 Y200.0 Z0.3 F1500.0 E15 ; Draw the first line
G1 X0.4 Y200.0 Z0.3 F5000.0 ; Move to side a little
G1 X0.4 Y20 Z0.3 F1500.0 E30 ; Draw the second line
G92 E0 ; Reset Extruder
G1 Z2.0 F3000 ; Move Z Axis up little to prevent scratching of Heat Bed
G1 X5 Y20 Z0.3 F5000.0 ; Move over to prevent blob squish
G92 E0
G92 E0
G1 F1500 E-6.5
;LAYER_COUNT:60
;LAYER:0
M107
G0 F6000 X78.257 Y50.839 Z0.2
;TYPE:SKIRT
G1 F1500 E0
G1 F1200 X78.539 Y50.426 E0.01663
G1 X78.91 Y49.911 E0.03774
G1 X79.47 Y49.202 E0.06779
G1 X80.29 Y48.358 E0.10693
G1 X80.727 Y47.957 E0.12666
G1 X81.419 Y47.376 E0.15671
G1 X81.923 Y47.013 E0.17737
G1 X82.521 Y46.61 E0.20135
G1 X83.291 Y46.139 E0.23138
G1 X83.756 Y45.898 E0.2488
G1 X84.442 Y45.564 E0.27417
G1 X85.352 Y45.146 E0.30748
G1 X86.19 Y44.809 E0.33752
G1 X87.054 Y44.547 E0.36755
G1 X87.938 Y44.362 E0.39759
G1 X89.131 Y44.239 E0.43748
G1 X92.277 Y44.101 E0.54222
G1 X94.786 Y43.915 E0.62589
G1 X97.352 Y43.651 E0.71169
G1 X99.846 Y43.324 E0.79535
G1 X102.328 Y42.926 E0.87896
G1 X105.231 Y42.371 E0.97726
G1 X106.483 Y42.115 E1.01976
G1 X107.375 Y41.973 E1.04981
G1 X108.376 Y41.909 E1.08317
G1 X108.91 Y41.901 E1.10093
G1 X110.791 Y41.9 E1.16349
G1 X111.637 Y41.911 E1.19163
G1 X112.538 Y41.964 E1.22165
G1 X113.513 Y42.112 E1.25445
G1 X116.625 Y42.741 E1.36005
G1 X119.09 Y43.164 E1.44324
G1 X121.609 Y43.523 E1.52786
G1 X124.122 Y43.808 E1.61198
G1 X126.65 Y44.023 E1.69637
G1 X129.931 Y44.197 E1.80565
G1 X130.77 Y44.227 E1.83357
G1 X131.671 Y44.299 E1.86363
G1 X132.561 Y44.451 E1.89366
G1 X133.434 Y44.68 E1.92368
G1 X134.657 Y45.148 E1.96724
G1 X135.351 Y45.466 E1.99263
G1 X136.268 Y45.911 E2.02653
G1 X137.209 Y46.435 E2.06235
G1 X137.754 Y46.784 E2.08388
G1 X138.003 Y46.953 E2.09388
G1 X138.983 Y47.709 E2.13505
G1 X139.495 Y48.156 E2.15766
G1 X140.149 Y48.78 E2.18772
G1 X140.957 Y49.733 E2.22928
G1 X141.321 Y50.22 E2.2495
G1 X141.829 Y50.967 E2.27955
G1 X142.269 Y51.756 E2.30959
G1 X142.48 Y52.202 E2.326
G1 X142.74 Y52.79 E2.34739
G1 X143.068 Y53.631 E2.37741
G1 X143.321 Y54.498 E2.40745
G1 X143.494 Y55.374 E2.43715
G1 X143.579 Y55.93 E2.45586
G1 X143.676 Y56.827 E2.48586
G1 X143.695 Y57.321 E2.50231
G1 X143.707 Y58.219 E2.53218
G1 X143.704 Y161.969 E5.98292
G1 X143.694 Y162.651 E6.0056
G1 X143.599 Y163.898 E6.0472
G1 X143.522 Y164.455 E6.0659
G1 X143.359 Y165.343 E6.09593
G1 X143.118 Y166.213 E6.12595
G1 X142.82 Y167.012 E6.15432
G1 X142.587 Y167.566 E6.17431
G1 X142.201 Y168.383 E6.20436
G1 X141.743 Y169.161 E6.23439
G1 X141.461 Y169.574 E6.25102
G1 X141.09 Y170.089 E6.27213
G1 X140.53 Y170.798 E6.30218
G1 X139.71 Y171.642 E6.34132
G1 X139.273 Y172.043 E6.36105
G1 X138.581 Y172.624 E6.3911
G1 X138.077 Y172.987 E6.41176
G1 X137.479 Y173.39 E6.43574
G1 X136.709 Y173.861 E6.46576
G1 X136.243 Y174.102 E6.48321
G1 X135.337 Y174.54 E6.51668
G1 X134.658 Y174.85 E6.54151
G1 X133.821 Y175.188 E6.57153
G1 X132.957 Y175.451 E6.60157
G1 X132.073 Y175.636 E6.63161
G1 X131.176 Y175.743 E6.66166
G1 X130.474 Y175.771 E6.68502
G1 X128.475 Y175.793 E6.75151
G1 X127.575 Y175.795 E6.78145
G1 X127.004 Y175.78 E6.80045
G1 X125.829 Y175.716 E6.83959
G1 X123.178 Y175.608 E6.92783
G1 X120.771 Y175.576 E7.0079
G1 X99.146 Y175.575 E7.72715
G1 X96.566 Y175.611 E7.81297
G1 X92.887 Y175.785 E7.93547
G1 X92.253 Y175.795 E7.95656
G1 X89.541 Y175.774 E8.04676
G1 X88.639 Y175.729 E8.0768
G1 X87.745 Y175.605 E8.10682
G1 X86.865 Y175.402 E8.13685
G1 X86.006 Y175.122 E8.1669
G1 X85.388 Y174.866 E8.18915
G1 X84.325 Y174.38 E8.22803
G1 X83.745 Y174.096 E8.24951
G1 X82.834 Y173.59 E8.28417
G1 X82.571 Y173.426 E8.29448
G1 X82.002 Y173.049 E8.31718
G1 X81.013 Y172.287 E8.3587
G1 X80.499 Y171.838 E8.3814
G1 X79.845 Y171.214 E8.41147
G1 X79.031 Y170.252 E8.45338
G1 X78.671 Y169.769 E8.47342
G1 X78.164 Y169.021 E8.50347
G1 X77.725 Y168.232 E8.5335
G1 X77.518 Y167.792 E8.54968
G1 X77.258 Y167.203 E8.57109
G1 X76.93 Y166.362 E8.60112
G1 X76.678 Y165.494 E8.63118
G1 X76.505 Y164.62 E8.66081
G1 X76.42 Y164.062 E8.67958
G1 X76.324 Y163.164 E8.70962
G1 X76.305 Y162.671 E8.72603
G1 X76.293 Y161.75 E8.75667
G1 X76.296 Y58.031 E12.20637
G1 X76.306 Y57.349 E12.22906
G1 X76.401 Y56.102 E12.27066
G1 X76.478 Y55.545 E12.28936
G1 X76.641 Y54.657 E12.31939
G1 X76.882 Y53.787 E12.34941
G1 X77.18 Y52.988 E12.37778
G1 X77.413 Y52.434 E12.39776
G1 X77.799 Y51.617 E12.42782
G1 X78.257 Y50.839 E12.45785
G0 F6000 X77.912 Y50.636
G1 F1200 X78.214 Y50.192 E12.47571
G1 X78.596 Y49.663 E12.49741
G1 X79.183 Y48.923 E12.52882
G1 X80.003 Y48.079 E12.56796
G1 X80.47 Y47.651 E12.58903
G1 X81.185 Y47.051 E12.62008
G1 X81.699 Y46.681 E12.64114
G1 X82.312 Y46.269 E12.66571
G1 X83.082 Y45.798 E12.69573
G1 X83.581 Y45.538 E12.71444
G1 X84.275 Y45.201 E12.7401
G1 X85.203 Y44.775 E12.77406
G1 X86.074 Y44.426 E12.80527
G1 X86.972 Y44.155 E12.83647
G1 X87.856 Y43.97 E12.86651
G1 X89.113 Y43.839 E12.90854
G1 X92.259 Y43.701 E13.01328
G1 X94.751 Y43.516 E13.09639
G1 X97.3 Y43.254 E13.18162
G1 X99.794 Y42.927 E13.26528
G1 X102.255 Y42.533 E13.34818
G1 X105.156 Y41.978 E13.44641
G1 X106.42 Y41.72 E13.48932
G1 X107.312 Y41.578 E13.51936
G1 X108.37 Y41.509 E13.55463
G1 X108.91 Y41.501 E13.57259
G1 X110.796 Y41.5 E13.63532
G1 X111.66 Y41.512 E13.66406
G1 X112.561 Y41.565 E13.69408
G1 X113.592 Y41.72 E13.72875
G1 X116.7 Y42.348 E13.83422
G1 X119.146 Y42.768 E13.91676
G1 X121.665 Y43.127 E14.00139
G1 X124.156 Y43.409 E14.08477
G1 X126.684 Y43.625 E14.16916
G1 X129.945 Y43.797 E14.27777
G1 X130.802 Y43.828 E14.30629
G1 X131.703 Y43.9 E14.33636
G1 X132.662 Y44.064 E14.36871
G1 X133.577 Y44.306 E14.40019
G1 X134.824 Y44.784 E14.44461
G1 X135.526 Y45.106 E14.4703
G1 X136.443 Y45.551 E14.5042
G1 X137.425 Y46.098 E14.54159
G1 X137.979 Y46.453 E14.56347
G1 X138.247 Y46.636 E14.57427
G1 X139.227 Y47.392 E14.61543
G1 X139.771 Y47.867 E14.63945
G1 X140.454 Y48.521 E14.6709
G1 X141.262 Y49.474 E14.71246
G1 X141.652 Y49.995 E14.73411
G1 X142.16 Y50.742 E14.76415
G1 X142.631 Y51.585 E14.79627
G1 X142.846 Y52.04 E14.81301
G1 X143.113 Y52.645 E14.835
G1 X143.441 Y53.486 E14.86503
G1 X143.705 Y54.386 E14.89622
G1 X143.889 Y55.314 E14.92769
G1 X143.977 Y55.887 E14.94697
G1 X144.076 Y56.812 E14.97791
G1 X144.095 Y57.316 E14.99469
G1 X144.107 Y58.219 E15.02472
G1 X144.104 Y161.975 E18.47566
G1 X144.093 Y162.681 E18.49915
G1 X143.998 Y163.928 E18.54074
G1 X143.915 Y164.527 E18.56085
G1 X143.744 Y165.45 E18.59208
G1 X143.493 Y166.353 E18.62325
G1 X143.189 Y167.167 E18.65215
G1 X142.949 Y167.737 E18.67272
G1 X142.546 Y168.586 E18.70398
G1 X142.088 Y169.364 E18.734
G1 X141.786 Y169.808 E18.75186
G1 X141.404 Y170.337 E18.77357
G1 X140.817 Y171.077 E18.80498
G1 X139.997 Y171.921 E18.84412
G1 X139.53 Y172.349 E18.86519
G1 X138.815 Y172.949 E18.89623
G1 X138.301 Y173.319 E18.9173
G1 X137.688 Y173.731 E18.94186
G1 X136.918 Y174.202 E18.97189
G1 X136.417 Y174.462 E18.99066
G1 X135.503 Y174.904 E19.02443
G1 X134.808 Y175.221 E19.04983
G1 X133.937 Y175.571 E19.08106
G1 X133.039 Y175.843 E19.11226
G1 X132.155 Y176.028 E19.1423
G1 X131.192 Y176.143 E19.17456
G1 X130.478 Y176.171 E19.19832
G1 X128.476 Y176.193 E19.26492
G1 X127.564 Y176.195 E19.29525
G1 X126.982 Y176.179 E19.31461
G1 X125.813 Y176.116 E19.35355
G1 X123.162 Y176.008 E19.4418
G1 X120.766 Y175.976 E19.5215
G1 X99.152 Y175.975 E20.24038
G1 X96.585 Y176.011 E20.32577
G1 X92.893 Y176.185 E20.4487
G1 X92.25 Y176.195 E20.47009
G1 X89.521 Y176.174 E20.56086
G1 X88.619 Y176.129 E20.5909
G1 X87.655 Y175.995 E20.62327
G1 X86.775 Y175.792 E20.6533
G1 X85.853 Y175.492 E20.68555
G1 X85.222 Y175.23 E20.70828
G1 X84.149 Y174.739 E20.74752
G1 X83.551 Y174.446 E20.76967
G1 X82.622 Y173.929 E20.80503
G1 X82.35 Y173.759 E20.8157
G1 X81.758 Y173.366 E20.83934
G1 X80.769 Y172.604 E20.88086
G1 X80.223 Y172.127 E20.90498
G1 X79.569 Y171.503 E20.93504
G1 X78.71 Y170.491 E20.97919
G1 X78.34 Y169.993 E20.99983
G1 X77.814 Y169.215 E21.03106
G1 X77.375 Y168.426 E21.06109
G1 X77.152 Y167.954 E21.07845
G1 X76.885 Y167.348 E21.10048
G1 X76.557 Y166.507 E21.1305
G1 X76.294 Y165.606 E21.16172
G1 X76.11 Y164.68 E21.19312
G1 X76.022 Y164.105 E21.21247
G1 X75.924 Y163.179 E21.24344
G1 X75.905 Y162.676 E21.26018
G1 X75.893 Y161.75 E21.29098
G1 X75.896 Y58.025 E24.74089
G1 X75.907 Y57.319 E24.76438
G1 X76.002 Y56.072 E24.80597
G1 X76.085 Y55.473 E24.82609
G1 X76.256 Y54.55 E24.85731
G1 X76.507 Y53.647 E24.88848
G1 X76.811 Y52.833 E24.91738
G1 X77.051 Y52.263 E24.93795
G1 X77.454 Y51.414 E24.96921
G1 X77.912 Y50.636 E24.99923
G0 F6000 X77.581 Y50.411
G1 F1200 X77.89 Y49.958 E25.01747
G1 X78.283 Y49.414 E25.03979
G1 X78.896 Y48.644 E25.07253
G1 X79.716 Y47.8 E25.11167
G1 X80.213 Y47.345 E25.13408
G1 X80.951 Y46.726 E25.16612
G1 X81.476 Y46.349 E25.18761
G1 X82.103 Y45.928 E25.21273
G1 X82.897 Y45.443 E25.24368
G1 X83.406 Y45.178 E25.26276
G1 X84.108 Y44.837 E25.28872
G1 X85.036 Y44.411 E25.32268
G1 X85.958 Y44.043 E25.3557
G1 X86.89 Y43.763 E25.38807
G1 X87.774 Y43.578 E25.41811
G1 X89.095 Y43.439 E25.46229
G1 X92.241 Y43.301 E25.56702
G1 X94.716 Y43.117 E25.64957
G1 X97.248 Y42.857 E25.73423
G1 X99.742 Y42.53 E25.81789
G1 X102.183 Y42.14 E25.90011
G1 X105.081 Y41.585 E25.99825
G1 X106.357 Y41.325 E26.04156
G1 X107.249 Y41.183 E26.0716
G1 X108.364 Y41.109 E26.10877
G1 X108.91 Y41.101 E26.12693
G1 X110.802 Y41.1 E26.18986
G1 X111.666 Y41.112 E26.2186
G1 X112.62 Y41.169 E26.25038
G1 X113.671 Y41.328 E26.28574
G1 X116.775 Y41.955 E26.39106
G1 X119.202 Y42.372 E26.47297
G1 X121.721 Y42.731 E26.5576
G1 X124.19 Y43.01 E26.64024
G1 X126.718 Y43.227 E26.72463
G1 X129.959 Y43.397 E26.83257
G1 X130.834 Y43.429 E26.86169
G1 X131.735 Y43.501 E26.89176
G1 X132.764 Y43.677 E26.92648
G1 X133.72 Y43.932 E26.95939
G1 X134.991 Y44.42 E27.00467
G1 X135.701 Y44.746 E27.03066
G1 X136.618 Y45.191 E27.06456
G1 X137.641 Y45.761 E27.10351
G1 X138.205 Y46.123 E27.1258
G1 X138.491 Y46.319 E27.13733
G1 X139.471 Y47.075 E27.1785
G1 X140.048 Y47.578 E27.20395
G1 X140.731 Y48.232 E27.23541
G1 X141.582 Y49.234 E27.27913
G1 X141.983 Y49.77 E27.30139
G1 X142.491 Y50.517 E27.33144
G1 X142.993 Y51.414 E27.36563
G1 X143.212 Y51.878 E27.38269
G1 X143.486 Y52.5 E27.4053
G1 X143.825 Y53.373 E27.43645
G1 X144.089 Y54.273 E27.46764
G1 X144.284 Y55.253 E27.50088
G1 X144.375 Y55.844 E27.52077
G1 X144.476 Y56.797 E27.55264
G1 X144.495 Y57.311 E27.56975
G1 X144.507 Y58.219 E27.59995
G1 X144.504 Y161.981 E31.05109
G1 X144.492 Y162.711 E31.07537
G1 X144.397 Y163.958 E31.11697
G1 X144.308 Y164.6 E31.13853
G1 X144.137 Y165.523 E31.16975
G1 X143.868 Y166.493 E31.20323
G1 X143.558 Y167.322 E31.23266
G1 X143.31 Y167.909 E31.25386
G1 X142.891 Y168.789 E31.28628
G1 X142.419 Y169.589 E31.31717
G1 X142.11 Y170.042 E31.33541
G1 X141.717 Y170.586 E31.35773
G1 X141.104 Y171.356 E31.39047
G1 X140.284 Y172.2 E31.4296
G1 X139.787 Y172.655 E31.45202
G1 X139.049 Y173.274 E31.48405
G1 X138.524 Y173.651 E31.50555
G1 X137.897 Y174.072 E31.53067
G1 X137.127 Y174.543 E31.56069
G1 X136.591 Y174.822 E31.58079
G1 X135.669 Y175.268 E31.61485
G1 X134.957 Y175.592 E31.64087
G1 X134.053 Y175.954 E31.67326
G1 X133.121 Y176.235 E31.70564
G1 X132.237 Y176.42 E31.73568
G1 X131.208 Y176.543 E31.77014
G1 X130.482 Y176.571 E31.79431
G1 X128.477 Y176.593 E31.861
G1 X127.553 Y176.595 E31.89173
G1 X126.96 Y176.578 E31.91146
G1 X125.797 Y176.516 E31.9502
G1 X123.146 Y176.408 E32.03844
G1 X120.761 Y176.376 E32.11778
G1 X99.158 Y176.375 E32.8363
G1 X96.604 Y176.411 E32.92125
G1 X92.899 Y176.585 E33.04462
G1 X92.247 Y176.595 E33.0663
G1 X89.501 Y176.574 E33.15764
G1 X88.599 Y176.529 E33.18768
G1 X87.565 Y176.385 E33.2224
G1 X86.685 Y176.182 E33.25244
G1 X85.729 Y175.872 E33.28586
G1 X85.056 Y175.594 E33.31008
G1 X83.973 Y175.098 E33.3497
G1 X83.356 Y174.796 E33.37255
G1 X82.427 Y174.279 E33.40791
G1 X82.129 Y174.092 E33.41961
G1 X81.514 Y173.683 E33.44418
G1 X80.525 Y172.921 E33.4857
G1 X79.947 Y172.416 E33.51123
G1 X79.264 Y171.762 E33.54268
G1 X78.389 Y170.73 E33.58768
G1 X78.009 Y170.217 E33.60892
G1 X77.464 Y169.409 E33.64133
G1 X77.013 Y168.597 E33.67223
G1 X76.786 Y168.115 E33.68995
G1 X76.512 Y167.493 E33.71255
G1 X76.184 Y166.652 E33.74258
G1 X75.91 Y165.718 E33.77495
G1 X75.715 Y164.741 E33.80809
G1 X75.624 Y164.147 E33.82807
G1 X75.524 Y163.194 E33.85995
G1 X75.505 Y162.681 E33.87702
G1 X75.493 Y161.75 E33.90799
G1 X75.496 Y58.019 E37.35809
G1 X75.508 Y57.289 E37.38238
G1 X75.603 Y56.042 E37.42397
G1 X75.692 Y55.4 E37.44553
G1 X75.863 Y54.477 E37.47675
G1 X76.132 Y53.507 E37.51023
G1 X76.442 Y52.678 E37.53967
G1 X76.69 Y52.091 E37.56086
G1 X77.109 Y51.211 E37.59328
G1 X77.581 Y50.411 E37.62418
G1 F1500 E31.12418
G0 F6000 X86.78 Y56.297
G0 X86.993 Y56.453
G1 F1500 E37.62418
G1 F1200 X87.342 Y55.981 E37.6437
G1 X87.79 Y55.579 E37.66372
G1 X88.307 Y55.24 E37.68428
G1 X89.509 Y54.672 E37.7285
G1 X89.571 Y54.727 E37.73126
G1 X89.641 Y54.744 E37.73365
G1 X89.929 Y54.759 E37.74324
G1 X89.949 Y54.759 E37.74391
G1 X90.247 Y54.744 E37.75383
G1 X90.262 Y54.742 E37.75434
G1 X90.914 Y54.661 E37.77619
G1 X92.267 Y54.601 E37.82123
G1 X92.286 Y54.644 E37.8228
G1 X92.338 Y54.674 E37.82479
G1 X91.582 Y54.674 E37.84994
G1 X90.913 Y54.703 E37.87221
G1 X90.896 Y54.705 E37.87278
G1 X90.233 Y54.793 E37.89502
G1 X90.214 Y54.796 E37.89566
G1 X89.58 Y54.942 E37.9173
G1 X89.56 Y54.948 E37.918
G1 X88.97 Y55.15 E37.93874
G1 X88.949 Y55.158 E37.93949
G1 X88.414 Y55.411 E37.95917
G1 X88.391 Y55.424 E37.96005
G1 X87.923 Y55.729 E37.97863
G1 X87.898 Y55.749 E37.97969
G1 X87.508 Y56.102 E37.99719
G1 X87.481 Y56.131 E37.99851
G1 X87.184 Y56.532 E38.0151
G1 X87.161 Y56.572 E38.01664
G1 X86.971 Y57.013 E38.03261
G1 X86.957 Y57.064 E38.03437
G1 X86.897 Y57.492 E38.04874
G1 X86.895 Y57.52 E38.04968
G1 X86.893 Y162.47 E41.54033
G1 X86.895 Y162.498 E41.54126
G1 X86.958 Y162.936 E41.55598
G1 X86.972 Y162.987 E41.55774
G1 X87.161 Y163.428 E41.5737
G1 X87.184 Y163.468 E41.57523
G1 X87.481 Y163.869 E41.59183
G1 X87.508 Y163.898 E41.59315
G1 X87.898 Y164.251 E41.61064
G1 X87.923 Y164.271 E41.61171
G1 X88.391 Y164.576 E41.63029
G1 X88.414 Y164.589 E41.63117
G1 X88.949 Y164.842 E41.65085
G1 X88.97 Y164.85 E41.6516
G1 X89.56 Y165.052 E41.67234
G1 X89.58 Y165.058 E41.67303
G1 X90.214 Y165.204 E41.69467
G1 X90.233 Y165.207 E41.69531
G1 X90.896 Y165.295 E41.71756
G1 X90.913 Y165.297 E41.71813
G1 X91.582 Y165.326 E41.7404
G1 X92.352 Y165.326 E41.76601
G1 X92.283 Y165.367 E41.76868
G1 X92.269 Y165.399 E41.76984
G1 X90.917 Y165.339 E41.81485
G1 X90.308 Y165.261 E41.83527
G1 X90.293 Y165.259 E41.83578
G1 X89.987 Y165.244 E41.84597
G1 X89.967 Y165.244 E41.84663
G1 X89.643 Y165.26 E41.85742
G1 X89.527 Y165.305 E41.86156
G1 X89.508 Y165.327 E41.86253
G1 X88.307 Y164.76 E41.9067
G1 X87.79 Y164.421 E41.92726
G1 X87.342 Y164.019 E41.94728
G1 X86.993 Y163.548 E41.96678
G1 X86.767 Y163.017 E41.98597
G1 X86.693 Y162.498 E42.00341
G1 X86.695 Y57.49 E45.49599
G1 X86.768 Y56.983 E45.51303
G1 X86.993 Y56.453 E45.53218
G1 F1500 E39.03218
G0 F6000 X86.78 Y56.297
G0 X87.148 Y55.802
G0 X87.625 Y55.369
G0 X88.175 Y55.011
G0 X89.443 Y54.497
